X: 31
T:Esqr. Lesstar
M:6/4
L:1/4
S:Wright 1713
Z:p
K:Dmin
dA/B/c/A/BGBAFA|c2cc>dcB2A|dA/B/c/A/BG/A/B/G/AF/G/A/F/|d2dd>ddd2A:||
dAGF2GA3|c2cc>dcB2A|dAGF2GA3|d2dd>_edc2A:||
